X:387
T:Princess Nancy
R:jig
C:Liz Carroll
S:Kevin Ryan and Marco Pollier
Z:hn-jig-387
M:6/8
L:1/8
K:G
A | B2A BGE | EDE G2A | BAB deg | a2g eag |
ede g2a | ged ege | dBc BGE | EDE G2 :|
A | B2g edB | BAB d2B | AEE ABd | AGA BGE |
G2g edB | BAB d2B | AGA BGE | EDE G2 ||
A | B2g edB | BAB d2B | AEE ABd | e2d ega |
bag age | ged ~e3 | dBc BGE | EDE G2 ||
